X:1
T:Jesus, We Are Coming
T:Jesus, We Are Coming
T:George Beaverson
T:George Beaverson, 1895
T:Public Domain Courtesy of the Cyber Hymnal™
C:George Beaverson
Z:Public Domain
Z:Courtesy of the Cyber Hymnal™
%%score ( 1 2 ) ( 3 4 )
L:1/8
Q:1/4=85
M:2/4
K:C
V:1 treble 
V:2 treble 
V:3 bass 
V:4 bass 
V:1
 [CE][EG] [CE][EG] | [DF] [B,D]2 z | [B,D][CE] [DF][FA] | [EG]3 z | [EG][Ec] [GB][FA] | %5
w: 1.~In the pre- cious|Bi- ble|We have oft- en|read|How God’s ho- ly|
w: 2.~When our bless- èd|Je- sus|Made this earth His|home,|He said, “Suf- fer|
w: 3.~We are lit- tle|sol- diers|March- ing day by|day|For- ward as for|
 [FB] (A2 B) | [FA][EG] [DG][D^F] | [DG]3 z | [DG][DF] [DF][DF] | [DF] [CE]2 z | %10
w: pro- phet *|By the birds were|fed.|Fa- ther may we|trust Thee,|
w: child- ren *|Un- to Me to|come.”|Je- sus, we are|com- ing,|
w: bat- tle, *|Rea- dy for the|fray.|We will ne- ver|fal- ter,|
 [B,D][CE] [DF][FA] | [EG]3 z | [EG][Ec] [GB][FA] | [EG] [Ec]2 z | [Ec][DB] [FA][FB] | [Ec]3 z || %16
w: As He did of|old,|That with Him we|may be|In Thy bless- èd|fold.|
w: Com- ing one and|all;|Ev- er press- ing|on- ward|At Thy bless- èd|call.|
w: Till the foe shall|fall,|Then with saints in|glo- ry|Crown Thee Lord of|all.|
"^Refrain" [Ec]2 [GB]2 | [FA]2 G2 | FE DC | G3 z | [EG]2 [Gc]2 | [FA]2 [Dd]2 | [Ec][DB] [FA][FB] | %23
w: |||||||
w: Heav’n- ly|Fa- ther,|Hear us while we|pray:|Lead our|foot- steps|In the nar- row|
w: |||||||
 [Ec]3 z |] %24
w: |
w: way.|
w: |
V:2
 x4 | x4 | x4 | x4 | x4 | x F3 | x4 | x4 | x4 | x4 | x4 | x4 | x4 | x4 | x4 | x4 || x4 | x2 G2 | %18
 FE DC | G3 x | x4 | x4 | x4 | x4 |] %24
V:3
 [C,G,][C,G,] [C,G,][C,G,] | [G,,G,] [G,,G,]2 z | [G,,G,][G,,G,] [G,,G,][G,,G,] | [C,G,]3 z | %4
 [C,C][C,C] [C,C][C,C] | [C,C] (C2 D) | [C,C][C,C] [D,B,][D,A,] | [G,B,]3 z | [G,B,][G,B,] G,G, | %9
 [C,G,] [C,G,]2 z | [G,,G,][G,,G,] [G,,G,][G,,G,] | [C,G,]3 z | [C,C][C,G,] [E,C][F,C] | %13
 [G,C] [G,C]2 z | G,G, [G,,G,][G,,G,] | [C,G,]3 z || [C,C]2 [E,C]2 | [F,C]2 [E,C]2 | F,E, D,C, | %19
 G,3 z | [C,C]2 [E,C]2 | [F,C]2 [F,C]2 | [G,C]G, G,G, | [C,G,]3 z |] %24
V:4
 x4 | x4 | x4 | x4 | x4 | x F,3 | x4 | x4 | x2 G,G, | x4 | x4 | x4 | x4 | x4 | G,G, x2 | x4 || x4 | %17
 x4 | F,E, D,C, | G,3 x | x4 | x4 | x G, G,G, | x4 |] %24

